sprites/streets-v8/_svg/theatre-15.svg

<?xml version="1.0" encoding="UTF-8" standalone="no"?>
<svg
   xmlns:dc="http://purl.org/dc/elements/1.1/"
   xmlns:cc="http://creativecommons.org/ns#"
   xmlns:rdf="http://www.w3.org/1999/02/22-rdf-syntax-ns#"
   xmlns:svg="http://www.w3.org/2000/svg"
   xmlns="http://www.w3.org/2000/svg"
   id="svg2"
   width="23"
   height="23"
   viewBox="0 0 23 23"
   version="1.1">
  <metadata
     id="metadata14">
    <rdf:RDF>
      <cc:Work
         rdf:about="">
        <dc:format>image/svg+xml</dc:format>
        <dc:type
           rdf:resource="http://purl.org/dc/dcmitype/StillImage" />
      </cc:Work>
    </rdf:RDF>
  </metadata>
  <defs
     id="defs12" />
  <ellipse
     id="ellipse4"
     ry="11.5"
     rx="11.5"
     cy="11.5"
     cx="11.5"
     style="fill:#ffffff;stroke:none;" />
  <ellipse
     id="ellipse6"
     ry="10.5"
     rx="10.5"
     cy="11.5"
     cx="11.5"
     style="fill:#a9a199;stroke:none;" />
  <g
     id="g8"
     transform="translate(4,4)">
    <metadata     id="metadata8"><rdf:RDF><cc:Work         rdf:about=""><dc:format>image/svg+xml</dc:format><dc:type           rdf:resource="http://purl.org/dc/dcmitype/StillImage" /><dc:title /></cc:Work></rdf:RDF></metadata><defs     id="defs6" /><path     id="path6342-3"     d="M 2 1 C 2 1 1 1 1 2 L 1 7.1582031 C 1 8.8884985 1.3540084 11 4.5 11 L 5 11 L 5 8 L 2.5 9 C 2.5 9 2.5 6.5 5 6.5 L 5 5 C 5 4.2921519 5.0867924 3.6791339 5.5 3.2246094 C 5.8815049 2.8049576 6.5046044 1.9674083 8.15625 2.7539062 L 9 3.3027344 L 9 2 C 9 2 9 1 8 1 C 7.2921519 1 6.0224473 2 5 2 C 3.9775528 2 2.786498 0.999998 2 1 z M 3 3 A 1.0000001 1.0000001 0 0 1 4 4 A 1.0000001 1.0000001 0 0 1 3 5 A 1.0000001 1.0000001 0 0 1 2 4 A 1.0000001 1.0000001 0 0 1 3 3 z M 7 4 C 7 4 6 4 6 5 L 6 10 C 6 12 7 14 10 14 C 13 14 14 12 14 10 L 14 5 C 14 4 13 4 13 4 C 12.292152 4 11.022447 5 10 5 C 8.9775527 5 7.7864979 4 7 4 z M 8 6 A 1.0000001 1.0000001 0 0 1 9 7 A 1.0000001 1.0000001 0 0 1 8 8 A 1.0000001 1.0000001 0 0 1 7 7 A 1.0000001 1.0000001 0 0 1 8 6 z M 12 6 A 1.0000001 1.0000001 0 0 1 13 7 A 1.0000001 1.0000001 0 0 1 12 8 A 1.0000001 1.0000001 0 0 1 11 7 A 1.0000001 1.0000001 0 0 1 12 6 z M 7.5 10 L 10 10 L 12.5 10 C 12.5 10 12.5 12.5 10 12.5 C 7.5 12.5 7.5 10 7.5 10 z "     style="fill:#ffffff;fill-opacity:1" />
  </g>
</svg>

<?xml version="1.0" encoding="utf-8"?>
<!-- Generator: Adobe Illustrator 17.1.0, SVG Export Plug-In . SVG Version: 6.00 Build 0)  -->
<!DOCTYPE svg PUBLIC "-//W3C//DTD SVG 1.1//EN" "http://www.w3.org/Graphics/SVG/1.1/DTD/svg11.dtd">
<svg version="1.1"
	 id="svg2" xmlns:svg="http://www.w3.org/2000/svg" xmlns:cc="http://creativecommons.org/ns#" xmlns:dc="http://purl.org/dc/elements/1.1/" xmlns:rdf="http://www.w3.org/1999/02/22-rdf-syntax-ns#"
	 xmlns="http://www.w3.org/2000/svg" xmlns:xlink="http://www.w3.org/1999/xlink" x="0px" y="0px" width="23px" height="23px"
	 viewBox="0 0 23 23" enable-background="new 0 0 23 23" xml:space="preserve">
<ellipse id="ellipse4" fill="#FFFFFF" cx="11.5" cy="11.5" rx="11.5" ry="11.5"/>
<ellipse id="ellipse6" fill="#A9A199" cx="11.5" cy="11.5" rx="10.5" ry="10.5"/>
<g id="g8" transform="translate(4,4)">
	<path id="path6342-3" fill="#FFFFFF" d="M2,1c0,0-1,0-1,1v5.2C1,8.9,1.4,11,4.5,11H5V8L2.5,9c0,0,0-2.5,2.5-2.5V5
		c0-0.7,0.1-1.3,0.5-1.8c0.4-0.4,1-1.3,2.7-0.5L9,3.3V2c0,0,0-1-1-1C7.3,1,6,2,5,2S2.8,1,2,1z M3,3c0.6,0,1,0.4,1,1S3.6,5,3,5
		S2,4.6,2,4S2.4,3,3,3z M7,4c0,0-1,0-1,1v5c0,2,1,4,4,4s4-2,4-4V5c0-1-1-1-1-1c-0.7,0-2,1-3,1S7.8,4,7,4z M8,6c0.6,0,1,0.4,1,1
		S8.6,8,8,8S7,7.6,7,7S7.4,6,8,6z M12,6c0.6,0,1,0.4,1,1s-0.4,1-1,1s-1-0.4-1-1S11.4,6,12,6z M7.5,10H10h2.5c0,0,0,2.5-2.5,2.5
		S7.5,10,7.5,10z"/>
</g>
</svg>
